src/assets/img/shape-tube-2.svg

<svg fill="none" height="104" viewBox="0 0 96 104" width="96" xmlns="http://www.w3.org/2000/svg"><path d="m44.1365 103.073c-5.6781.02-11.3046-1.051-16.5567-3.1541-5.3768-2.1195-10.272-5.2509-14.4057-9.2152-4.13367-3.9643-7.42479-8.6837-9.68512-13.8883s-3.4455239-10.7922-3.48780721-16.4435c-.04228329-5.6512 1.05917721-11.2551 3.24138721-16.4912 2.98769-6.7319 5.78864-13.5851 9.21204-19.6498 5.0888-10.2259 14.136-18.06512 25.1536-21.7951 11.0176-3.72999 23.1043-3.045619 33.6043 1.90272 10.5088 4.9933 18.5546 13.84588 22.3707 24.61398s3.0906 22.5717-2.0171 32.8192c-2.303 4.6698-4.4816 9.461-6.5356 14.3128-3.2558 7.9733-8.8955 14.8094-16.1873 19.6217-7.2919 4.8128-15.8996 7.3788-24.7067 7.3668zm7.7805-66.7126c-.7205.014-1.4344.1367-2.1163.3639-.8425.288-1.6177.7367-2.2803 1.3198-.6625.5831-1.1993 1.289-1.5788 2.0764-2.801 5.6402-5.4774 11.4624-7.9672 17.4058-.6575 1.6175-.6342 3.4222.0649 5.023s2.0176 2.8685 3.6697 3.5283c.8062.335 1.6758.5003 2.552.4852 1.3395-.0119 2.6453-.4099 3.753-1.1438s1.9676-1.7709 2.4714-2.9802c2.3652-5.6402 4.9172-11.2198 7.5937-16.5568.4921-1.0147.7136-2.1339.6439-3.2542-.0697-1.1202-.4283-2.2052-1.0427-3.1546-.6144-.9493-1.4646-1.7323-2.4721-2.2764-1.0074-.5441-2.1394-.8318-3.2912-.8364z" fill="#fcf5c7"/></svg>

<svg width="96" height="104" viewBox="0 0 96 104" fill="none" xmlns="http://www.w3.org/2000/svg">
<path d="M44.1365 103.073C38.4584 103.093 32.8319 102.022 27.5798 99.9189C22.203 97.7994 17.3078 94.668 13.1741 90.7037C9.04043 86.7394 5.74931 82.02 3.48898 76.8154C1.22865 71.6108 0.0434561 66.0232 0.00117279 60.3719C-0.0411105 54.7207 1.06035 49.1168 3.24256 43.8807C6.23025 37.1488 9.0312 30.2956 12.4546 24.2309C17.5434 14.005 26.5906 6.16578 37.6082 2.4358C48.6258 -1.29419 60.7125 -0.609819 71.2125 4.33852C81.7213 9.33182 89.7671 18.1844 93.5832 28.9525C97.3993 39.7206 96.6738 51.5242 91.5661 61.7717C89.2631 66.4415 87.0845 71.2327 85.0305 76.0845C81.7747 84.0578 76.135 90.8939 68.8432 95.7062C61.5513 100.519 52.9436 103.085 44.1365 103.073ZM51.917 36.3604C51.1965 36.3744 50.4826 36.4971 49.8007 36.7243C48.9582 37.0123 48.183 37.461 47.5204 38.0441C46.8579 38.6272 46.3211 39.3331 45.9416 40.1205C43.1406 45.7607 40.4642 51.5829 37.9744 57.5263C37.3169 59.1438 37.3402 60.9485 38.0393 62.5493C38.7384 64.1501 40.0569 65.4178 41.709 66.0776C42.5152 66.4126 43.3848 66.5779 44.261 66.5628C45.6005 66.5509 46.9063 66.1529 48.014 65.419C49.1217 64.6851 49.9816 63.6481 50.4854 62.4388C52.8506 56.7986 55.4026 51.219 58.0791 45.882C58.5712 44.8673 58.7927 43.7481 58.723 42.6278C58.6533 41.5076 58.2947 40.4226 57.6803 39.4732C57.0659 38.5239 56.2157 37.7409 55.2082 37.1968C54.2008 36.6527 53.0688 36.365 51.917 36.3604Z" fill="#FCF5C7"/>
</svg>
